X:194
T:Double Entendre, La
M:2/4
L:1/8
B:Thompson's Compleat Collection of 200 Favourite Country Dances, vol. 1 (London, 1757)
Z:Transcribed and edited by Flynn Titford-Mock, 2007
Z:abc's:AK/Fiddler's Companion
K:G
B2 dB|c2 Ac|B2 dB|c2A2|B2 dB|cdef|gedc|B2G2:|
|:B2 GB|c2 ec|B2 GB|AFED|g2 dB|cdef|gedc|B2 G2:|

